X:338
T: Mudan kaihua wanlihong
N: C1839
O: China,Ningxia Guyuan
S: I, 174]
N: Hui
R: Shange]
M: 2/4
L: 1/16
K: D
E2E4EF | A2BAG2E2 | B2A2G2E2 | E4A2B2 |
e2f2e2d2 | B2d2B2A2 | B2A2G2E6 | E8 |
B2A2G2E2 | E4A2B2 | e2f2e2d2 | B2d2B2A2 | B2A2G2E6 | E8

@@@ Tune index: 6893
